
(
var w, u,size=1000;
var r_az = 0.0,r_el = 0.0,az,el,px;
var n=0,point,per,dist=400,mag,diameter=500;
var rx = 0.0,ry = 0.0,rz = 0.0,d_o=2;

w = Window("3d Plotter", Rect(100,100,size,size));
v = UserView(w, w.view.bounds).background_(Color.black);

v.drawFunc = {
Pen.translate(v.bounds.width/2,v.bounds.height/2);
n=0;

(32*16).do {
az=~az.[n];el=~el.[n];
mag=(Cartesian(~magx.[n],0,0).rho/(2.sqrt));
//mag=1;
point = Spherical(diameter*mag,
(az + r_az).wrap(pi.neg,pi),
(el + r_el).wrap(0.5pi.neg,0.5pi)).asCartesian;

// X rotation
point = Cartesian(point.x,point.y,point.z).rotateYZ(rx);
// Y rotation
point = Cartesian(point.x,point.y,point.z).rotateXZ(ry);
// Z rotation
point = Cartesian(point.x,point.y,point.z).rotateXY(rz);

n=n+1;
///perspective
per = dist / (dist + point.z + (dist/2));
px=Polar(point.z,Complex(point.x,point.y).theta);
px=point;
///color
Pen.fillColor = Color.white.alpha_(per.clip(0.1,1.0));
///object
Pen.fillOval(Rect.aboutPoint(Point(px.x*per,px.y*per),d_o*per,d_o*per));
};
};

w.front;

Routine({
inf.do {
///points rotation animation
r_az = r_az + 0;
r_el = r_el + 0;
///whole distribution rotation animation
rx = rx+0;
ry = ry + 0.1;
rz = rz + 0.1;
{v.refresh}.defer;
(1/8).wait;

};
}).play;
)




/////solid polytope point cloud vertices
///////////////////////////////////////////////////////////////////////////////////////////////////////////////////////////////////////////////////////////////////////spaces
////////////////////////////////////////////////////////////////////////////////////////////////////////////////////////////////////////////////////////////////////////////////
/*
///////////////////////////////////////////////////////////////////////////////////////////////////////////////////////////////////////////////////////////////////////////tetrahedron
(
~azimuth=[45.degrad,135.neg.degrad,45.neg.degrad,135.degrad];
~elevation=[35.264390.neg.degrad,35.264390.neg.degrad,35.264390.degrad,35.264390.degrad];
);

//////////////////////////////////////////////////////////////////////////////////////////////////////////////////////////////////////////////////////////////////////////////////////cube
(
~azimuth=[45.degrad,135.degrad,45.neg.degrad,135.neg.degrad,45.degrad,135.degrad,45.neg.degrad,135.neg.degrad];
~elevation=[35.264390.neg.degrad,35.264390.neg.degrad,35.264390.neg.degrad,35.264390.neg.degrad,35.264390.degrad,35.264390.degrad,35.264390.degrad,35.264390.degrad];
)

/////////////////////////////////////////////////////////////////////////////////////////////////////////////////////////////////////////////////////////////////////////////////////octahedron
(
~azimuth=[0.degrad,0.degrad,90.degrad,180.degrad,90.neg.degrad,0.degrad];
~elevation=[90.neg.degrad,0.degrad,0.degrad,0.degrad,0.degrad,90.degrad];
)

//////////////////////////////////////////////////////////////////////////////////////////////////////////////////////////////////////////////////////////////////////////////////////icosahedron
(
~azimuth=[90.degrad,90.neg.degrad,0.degrad,180.degrad,58.28.degrad,121.72.degrad,121.72.neg.degrad,58.neg.degrad,90.degrad,90.neg.degrad,0.degrad,180.degrad];
~elevation=[58.28.neg.degrad,58.28.neg.degrad,31.72.neg.degrad,31.72.neg.degrad,0.degrad,0.degrad,0.degrad,0.degrad,58.28.degrad,58.28.degrad,31.72.degrad,31.72.degrad];
)

/////////////////////////////////////////////////////////////////////////////////////////////////////////////////////////////////////////////////////////////////////////////////////dodecahedron
(
~azimuth=[45.degrad,135.neg.degrad,135.degrad,45.neg.degrad,90.degrad,90.neg.degrad,0.degrad,180.degrad,45.degrad,135.neg.degrad,135.degrad,45.neg.degrad,90.degrad,
	90.neg.degrad,69.09.degrad,110.91.degrad,110.91.neg.degrad,69.09.neg.degrad,0.degrad,180.degrad];

~elevation=[35.26.neg.degrad,35.26.neg.degrad,35.26.neg.degrad,35.26.neg.degrad,69.09.neg.degrad,69.09.neg.degrad,20.91.neg.degrad,20.91.neg.degrad,
	35.26.degrad,35.26.degrad,35.26.degrad,35.26.degrad,69.09.degrad,69.09.degrad,0.degrad,0.degrad,0.degrad,0.degrad,20.91.degrad,20.91.degrad]
)

/////////////////////////////////////////////////////////////////////////////////////////////////////////////////////////////////////////////////////////////////////////////////////Rhombic dodecahedron
(
~azimuth=[0.degrad,45.degrad,135.neg.degrad,135.degrad,45.neg.degrad,0.degrad,180.degrad,90.degrad,90.neg.degrad,0.degrad,
	45.degrad,135.neg.degrad,135.degrad,45.neg.degrad];
~elevation=[90.neg.degrad,35.264390.neg.degrad,35.264390.neg.degrad,35.264390.neg.degrad,35.264390.neg.degrad,0.degrad
	,0.degrad,0.degrad,0.degrad,90.degrad,35.264390.degrad,35.264390.degrad,35.264390.degrad,35.264390.degrad];
)

/////////////////////////////////////////////////////////////////////////////////////////////////////////////////////////////////////////////////////////////////////////////////////cuboctahedron
(
~azimuth=[0.degrad,90.degrad,180.degrad,90.neg.degrad,45.degrad,135.degrad,45.neg.degrad,135.neg.degrad,
	0.degrad,90.degrad,180.degrad,90.neg.degrad];
~elevation=[45.neg.degrad,45.neg.degrad,45.neg.degrad,45.neg.degrad,0.degrad,0.degrad,0.degrad,0.degrad,
	45.degrad,45.degrad,45.degrad,45.degrad];
)

//////////////////////////////////////////////////////////////////////////////////////////////////////////////////////////////////////////////////////////////////////////////////Rhombic Triacontahedron
(
~azimuth=[0.degrad,0.degrad,72.degrad,144.degrad,144.neg.degrad,72.neg.degrad,36.degrad,108.degrad,180.degrad,108.neg.degrad,36.neg.degrad,
	0.degrad,72.degrad,144.degrad,144.neg.degrad,72.neg.degrad,36.degrad,108.degrad,180.degrad,108.neg.degrad,36.neg.degrad,
	0.degrad,72.degrad,144.degrad,144.neg.degrad,72.neg.degrad,36.degrad,108.degrad,180.degrad,108.neg.degrad,36.neg.degrad,0.degrad];

~elevation=[90.neg.degrad,52.6.neg.degrad,52.6.neg.degrad,52.6.neg.degrad,52.6.neg.degrad,52.6.neg.degrad,26.6.neg.degrad,26.6.neg.degrad,26.6.neg.degrad,26.6.neg.degrad,26.6.neg.degrad,10.8.neg.degrad,10.8.neg.degrad,10.8.neg.degrad,10.8.neg.degrad,10.8.neg.degrad,52.6.degrad,52.6.degrad,52.6.degrad,52.6.degrad,52.6.degrad,26.6.degrad,26.6.degrad,26.6.degrad,26.6.degrad,26.6.degrad,10.8.degrad,10.8.degrad,10.8.degrad,10.8.degrad,10.8.degrad,90.degrad];

)

///////////////////////////////////////////////////////////////////////////////////////////////////////////////////////////////////////////////////////////////////////////////////////icosidodecahedron
(
~azimuth=[18.degrad,90.degrad,162.degrad,126.neg.degrad,54.neg.degrad,54.degrad,126.degrad,162.neg.degrad,90.neg.degrad,18.neg.degrad,
	0.degrad,36.degrad,72.degrad,108.degrad,144.degrad,180.degrad,144.neg.degrad,108.neg.degrad,72.neg.degrad,36.neg.degrad,
	54.degrad,126.degrad,162.neg.degrad,90.neg.degrad,18.neg.degrad,18.degrad,90.degrad,162.degrad,126.neg.degrad,54.neg.degrad];

~elevation=[58.283.degrad,58.283.degrad,58.283.degrad,58.283.degrad,58.283.degrad,58.283.neg.degrad,58.283.neg.degrad,58.283.neg.degrad,58.283.neg.degrad,58.283.neg.degrad,0.degrad,0.degrad,0.degrad,0.degrad,0.degrad,0.degrad,0.degrad,0.degrad,0.degrad,0.degrad,
37.717.degrad,37.717.degrad,37.717.degrad,37.717.degrad,37.717.degrad,37.717.neg.degrad,37.717.neg.degrad,37.717.neg.degrad,37.717.neg.degrad,37.717.neg.degrad];
)*/