///Quarks.install("MathLib");
(
(
s.options.numWireBufs = 1024*2;
s.options.numOutputBusChannels=12;
s.options.numInputBusChannels=0;
s.options.memSize = 8192*256;
s.options.blockSize = 64;
s.options.maxNodes = 8192*2;
Buffer.freeAll;
Window.closeAll;
s.makeGui(w);
//s.meter;
//s.freqscope;
//s.scope;
);
~img_print = Image.open("/Users/rohifes/Documents/3d plotter/sound engine/synthf/image to sound/Su painting.png");////interface image
~img_sound=Image.open("/Users/rohifes/Documents/3d plotter/sound engine/synthf/image to sound/Su painting feed.png");//////sound image
s.waitForBoot{
Tdef(\drone, {
//~controlBus = Bus.control(s, 1);

////////////////////////////////////////////////////////////////////////////////////////// wavetable, scales, space,timbre///////////////////////////////////////

({
var img,c=0, color,xx=0,yy=0,r=[],g=[],b=[],h_count=0;
img = ~img_sound;
~cx=[]; ~cy=[];  ~cz=[];
~height=img.height;
~width=img.width;
~vertices = ~height*~width;
	~height.do{
				~width.do {
         color = img.getColor(xx, yy);
	[color.red, color.green, color.blue].postln;
			r=r++color.red;
			g=g++color.green;
         	b=b++color.blue;
xx=xx+1;
				};
				xx=0;
				yy=yy+1;
    };
			r=r+0.0001;  g=g+0.0001;  b=b+0.0001;

        ~cx=~cx++r;
		~cy=~cy++g;
		~cz=~cz++b;
		}.defer;
);
5.wait;
(
{
    ~az = [];
    ~el = [];

    ~vertices.do {
        var ix, iy, iz,n=1.neg;
        var az, el, r;

					n=n+1;
        ix = ~cx[n];
        iy = ~cy[n];
        iz = ~cz[n];

        az = atan2(iy, ix); // azimuth
        r = sqrt(ix.squared + iy.squared + iz.squared);
        el = acos(iz / r);  // same convention as Cartesian.phi

        ~az = ~az++az;
        ~el = ~el++el;
    };
}.value;
);
5.wait;
		////envelope sig
		(
~ne=1.neg;~arraye=56.collect{~ne=~ne+1;2.pow(~ne/56)};
~signalSizee = 2048*1;
);

(
~n=1.neg;~array=992.collect{~n=~n+1;2.pow(~n/992)};
~n=(0-(2pi/992)); ~ph=992.collect{~n=~n+(2pi/992);};
~bufferSize = 4096*8;
~signalSize = 2048*8;
);
		///////
(
~n=1.neg;~array=992.collect{~n=~n+1;2.pow(~n/992)};
~n=(0-(2pi/992)); ~ph=992.collect{~n=~n+(2pi/992);};
~bufferSize = 4096*8;
~signalSize = 2048*8;
);
(
~wt= Buffer.alloc(s,~bufferSize);
{
var signal,wt;
signal=Signal.sineFill(~signalSize,~array,~ph);
wt = signal.asWavetable;
~wt.loadCollection(wt);
//signal.plot;
}.value;
);
(
~note=21;
~note10=5;
(
{
var nn=1.neg;
~scale=~note.collect{nn=nn+1;Scale.dorian.performDegreeToKey(nn,12)};
}.value;
);
(
{
var nn=1.neg,scale1,scale2;
scale1=~note10.collect{nn=nn+1;Scale.minorPentatonic.performDegreeToKey(nn,12)};
nn=1.neg;
scale2=~note10.collect{nn=nn+1;Scale.majorPentatonic.performDegreeToKey(nn,12)};
~scale10=scale1++scale2;
}.value;
)
);


/////////////////////////////////////////////////////////////////////////////////////////////////////sound
(
SynthDef.new(\synth,{
arg gain=1,lowend=20,s_size=1,room=1,drive=0,au=0,
c=0,az=0,el=0,dicay=2,attack=2,sc=20,ssc=1,mix=0,rect=16,
busArray = #[0,1,2,3,4,5,6,7,8,9,10,11];
var fund,fu=24,n=0,mod_x,mod_y,mod_z,phasex,phasey,phasez,low=0;
var freq1,freq2,freq3,amp1,amp2,amp3,sig1,sig2,sig3,heavy;
var b_x,b_y,b_z,polytope,env,expansion,sph1,sph2,xx,yy,zz,envf;
var g_ch1,g_ch2,g_ch3,g_ch4,s1,s2,s3,s4,a1,a2,a3,a4,mp,mps,mpf,px,py,pz,ptheta,pphi;
var s_x,s_y,s_z,threshold,c1,c2,c3,mp_x,mp_y,mp_z,mps_x,mps_y,mps_z,mpf_x,mpf_y,mpf_z;
var peak, times,signal,rip,enva,key;

s1=Rand(0, ~vertices-1).round(1).asInteger;s2=Rand(0, ~vertices-1).round(1).asInteger;
s3=Rand(0, ~vertices-1).round(1).asInteger;s4=Rand(0, ~vertices-1).round(1).asInteger;

////envelope
signal = Signal.sineFill(~signalSizee, ~arraye, [0]);
signal = signal.rotate(signal.size div: 2);
peak = signal.abs.maxIndex.max(1);
rip = Env.perc(0.5,0.5).asSignal(~signalSizee);
rip = rip * (1 + (signal / 8));
rip = rip.normalize;
peak = peak.min(signal.size - 2).max(1);
times =Array.fill(peak, attack / peak) ++ Array.fill(signal.size - peak - 1, dicay / (signal.size - peak - 1));
enva = Env(rip.asArray, times);
env = EnvGen.ar(enva,doneAction:2)*gain;


//env=EnvGen.ar(Env.perc(attack,dicay,gain),doneAction:2);
envf=EnvGen.ar(Env.new([0,0,pi,pi,2pi],[(dicay/2),(attack/2),(dicay/2),(attack/2)]),doneAction:0);

expansion=2.pow(c.lag(0.01)/16256);
fund=(fu*(9/8))*expansion;
heavy=2.pow(drive.lag(0.01)/16256);

xx = (~vertices * cos(el) * cos(az)).round(1).asInteger.abs;
yy = (~vertices * cos(el) * sin(az)).round(1).asInteger.abs;
zz = (~vertices * sin(el)).round(1).asInteger.abs;
px=Select.kr(xx,~cx);
py=Select.kr(yy,~cy);
pz=Select.kr(zz,~cz);

ptheta=atan2(py,px);
pphi=atan2(pz,(px.squared+py.squared).sqrt);

///osc
mp_x = sc  * cos(pphi) * cos(ptheta);
mp_y = sc  * cos(pphi) * sin(ptheta);
mp_z = sc  * sin(pphi);

mps_x = ssc * cos(pphi) * cos(ptheta);
mps_y = ssc * cos(pphi) * sin(ptheta);
mps_z = ssc * sin(pphi);

mpf_x = cos(pphi) * cos(ptheta);
mpf_y = cos(pphi) * sin(ptheta);
mpf_z = sin(pphi);

b_x=2.pow(mp_x.round(1)/16256);
b_y=2.pow(mp_y.round(1)/16256);
b_z=2.pow(mp_z.round(1)/16256);
s_x=2.pow(Select.kr(mps_x.round(1).abs,~scale).asInteger /12);
s_y=2.pow(Select.kr(mps_y.round(1).abs,~scale).asInteger /12);
s_z=2.pow(Select.kr(mps_z.round(1).abs,~scale).asInteger /12);

key=2.pow(Select.kr(au,~scale10).asInteger/12);
fund=fund*key;

mod_x=mpf_x;
mod_y=mpf_y;
mod_z=mpf_z;
//for linear phase mapping use linlin
//for compresse exp smoother maping with more energe towards similar values use complex
//for rational relations between phases and symmetry matrices use atan2 relation insteadof maping
//here since signal is wavefield ratio phases with more sidebands and matrice symmetries may be usefull
//phasex=(Complex(1,mod_x).theta*2)+envf;
//phasey=(Complex(1,mod_y).theta*2)+envf;
//phasez=(Complex(1,mod_z).theta*2)+envf;
phasex=atan2(mod_x,mod_y)+envf;
phasey=atan2(mod_y,mod_z)+envf;
phasez=atan2(mod_z,mod_x)+envf;

freq1=(fund)*b_x*s_x;
freq2=(fund)*b_y*s_y;
freq3=(fund)*b_z*s_z;
amp1=b_x.reciprocal*expansion.reciprocal*s_x.reciprocal*key.reciprocal;
amp2=b_y.reciprocal*expansion.reciprocal*s_y.reciprocal*key.reciprocal;
amp3=b_z.reciprocal*expansion.reciprocal*s_z.reciprocal*key.reciprocal;

c1=FreeVerb.ar(BPF.ar((Osc.ar(~wt.bufnum,freq1,phase:phasex,mul:1200).abs*
SinOsc.ar(freq1,phase:phasex)),freq1,heavy,amp1),mix,room);
c2=FreeVerb.ar(BPF.ar((Osc.ar(~wt.bufnum,freq2,phase:phasey,mul:1200).abs*
SinOsc.ar(freq2,phase:phasey)),freq2,heavy,amp2),mix,room);
c3=FreeVerb.ar(BPF.ar((Osc.ar(~wt.bufnum,freq3,phase:phasez,mul:1200).abs*
SinOsc.ar(freq3,phase:phasez)),freq3,heavy,amp3),mix,room);

////distortion rectifier
sig1=((((SinOsc.ar(freq1*(rect*2),phase:phasex,mul:amp1)).abs+(amp1))*
(SinOsc.ar(freq1*(rect),phase:phasex,mul:amp1))).abs+(amp1))*c1*10;
sig2=((((SinOsc.ar(freq2*(rect*2),phase:phasey,mul:amp2)).abs+(amp2))*
(SinOsc.ar(freq2*(rect),phase:phasey,mul:amp2))).abs+(amp2))*c2*10;
sig3=((((SinOsc.ar(freq3*(rect*2),phase:phasez,mul:amp3)).abs+(amp3))*
(SinOsc.ar(freq3*(rect),phase:phasez,mul:amp3))).abs+(amp3))*c3*10;

sig1=(sig1*mix.linlin(0,1,0.1,2)).softclip;
sig2=(sig2*mix.linlin(0,1,0.1,2)).softclip;
sig3=(sig3*mix.linlin(0,1,0.1,2)).softclip;

//////propagation
sig1=sig1*mp_x.sign;
sig2=sig2*mp_y.sign;
sig3=sig3*mp_z.sign;

///spectral compensation
//sig1=BRF.ar(c1,freq1/2,heavy);
//sig2=BRF.ar(c2,freq2/2,heavy);
//sig3=BRF.ar(c3,freq3/2,heavy);
//sig1=BRF.ar(c1,freq1*4,heavy);
//sig2=BRF.ar(c2,freq2*4,heavy);
//sig3=BRF.ar(c3,freq3*4,heavy);

/////compresion
sig1=HPF.ar(sig1,lowend);
sig2=HPF.ar(sig2, lowend);
sig3=HPF.ar(sig3, lowend);
threshold=(((343/s_size)/fund).reciprocal.ampdb/2.sqrt).dbamp;
sig1=Compander.ar(sig1,c1,threshold,1.2,1/3,0.03,0.15)+BrownNoise.ar(0.000001);
sig2=Compander.ar(sig2,c2,threshold,1.2,1/3,0.03,0.15)+BrownNoise.ar(0.000001);
sig3=Compander.ar(sig3,c3,threshold,1.2,1/3,0.03,0.15)+BrownNoise.ar(0.000001);

/////spat
a1=a2=a3=a4=1;
g_ch1=
(sig1.abs.range(0.001,1)*cos(pphi)*cos(ptheta)*
 sig1.range(0.001,1)*cos(Select.kr(s1,~el)*a1)*cos(Select.kr(s1,~az)*a1))
+
(sig2.abs.range(0.001,1)*cos(pphi)*sin(ptheta)*
 sig2.range(0.001,1)*cos(Select.kr(s1,~el)*a1)*sin(Select.kr(s1,~az)*a1))
+
(sig3.abs.range(0.001,1)*sin(pphi)*
 sig3.range(0.001,1)*sin(Select.kr(s1,~el)*a1));

g_ch2=
(sig1.abs.range(0.001,1)*cos(pphi)*cos(ptheta)*
 sig1.range(0.001,1)*cos(Select.kr(s2,~el)*a2)*cos(Select.kr(s2,~az)*a2))
+
(sig2.abs.range(0.001,1)*cos(pphi)*sin(ptheta)*
 sig2.range(0.001,1)*cos(Select.kr(s2,~el)*a2)*sin(Select.kr(s2,~az)*a2))
+
(sig3.abs.range(0.001,1)*sin(pphi)*
 sig3.range(0.001,1)*sin(Select.kr(s2,~el)*a2));

g_ch3=
(sig1.abs.range(0.001,1)*cos(pphi)*cos(ptheta)*
 sig1.range(0.001,1)*cos(Select.kr(s3,~el)*a3)*cos(Select.kr(s3,~az)*a3))
+
(sig2.abs.range(0.001,1)*cos(pphi)*sin(ptheta)*
 sig2.range(0.001,1)*cos(Select.kr(s3,~el)*a3)*sin(Select.kr(s3,~az)*a3))
+
(sig3.abs.range(0.001,1)*sin(pphi)*
 sig3.range(0.001,1)*sin(Select.kr(s3,~el)*a3));

g_ch4=
(sig1.abs.range(0.001,1)*cos(pphi)*cos(ptheta)*
 sig1.range(0.001,1)*cos(Select.kr(s4,~el)*a4)*cos(Select.kr(s4,~az)*a4))
+
(sig2.abs.range(0.001,1)*cos(pphi)*sin(ptheta)*
 sig2.range(0.001,1)*cos(Select.kr(s4,~el)*a4)*sin(Select.kr(s4,~az)*a4))
+
(sig3.abs.range(0.001,1)*sin(pphi)*
 sig3.range(0.001,1)*sin(Select.kr(s4,~el)*a4));

(
Out.ar(busArray.[0],LeakDC.ar(sig1*env));
Out.ar(busArray.[1],LeakDC.ar(sig2*env));
Out.ar(busArray.[2],LeakDC.ar(sig3*env));
)
///comment out the above parentheses and uncomment the below to use the synth on
///threefold speaker wavefield quad spat (12ch)/// to puput stereo sets (x,y) not use z channel as ouput (2,5,etc), sig3.
/*(
Out.ar(busArray.[0],LeakDC.ar(sig1*env*g_ch1));
Out.ar(busArray.[1],LeakDC.ar(sig2*env*g_ch1));
Out.ar(busArray.[2],LeakDC.ar(sig3*env*g_ch1));
Out.ar(busArray.[3],LeakDC.ar(sig1*env*g_ch2));
Out.ar(busArray.[4],LeakDC.ar(sig2*env*g_ch2));
Out.ar(busArray.[5],LeakDC.ar(sig3*env*g_ch2));
Out.ar(busArray.[6],LeakDC.ar(sig1*env*g_ch3));
Out.ar(busArray.[7],LeakDC.ar(sig2*env*g_ch3));
Out.ar(busArray.[8],LeakDC.ar(sig3*env*g_ch3));
Out.ar(busArray.[9],LeakDC.ar(sig1*env*g_ch4));
Out.ar(busArray.[10],LeakDC.ar(sig2*env*g_ch4));
Out.ar(busArray.[11],LeakDC.ar(sig3*env*g_ch4));
)*/

}).add;
);
5.wait;
/////////////////////////////////////////////////////////////////////////////////////////////////////////sequencer,pattern
(
({
var m1=1.neg, m2=1.neg;
var m3=1.neg,n=0,bank=5,rhythm=4,time=32.reciprocal,beat=1;
var durx=[],dury=[],durz=[],durx1=[],dury1=[],durz1=[];
var dx=[],dy=[],dz=[],bx,by,bz,durx2,dury2,durz2;

~azr=[45.degrad,135.neg.degrad,45.neg.degrad,135.degrad];
~elr=[35.264390.neg.degrad,35.264390.neg.degrad,35.264390.degrad,35.264390.degrad];
~r=0;~r1=0;~r2=0;

~dur=[];

bank.do{
    m1=m2=m3=~vertices.rand;

    bx=1.collect{
        var az, el, x, y, z;
        az = ~az.[m1];
        el = ~el.[m1];
        x = beat * cos(el) * cos(az);
        y = beat * cos(el) * sin(az);
        z = beat * sin(el);
        2.pow(x).round(time)};

   by=1.collect{
        var az, el, x, y, z;
        az = ~az.[m2];
        el = ~el.[m2];
        x = beat * cos(el) * cos(az);
        y = beat * cos(el) * sin(az);
        z = beat * sin(el);
        2.pow(y).round(time)};

    bz=1.collect{
        var az, el, x, y, z;
        az = ~az.[m3];
        el = ~el.[m3];
        x = beat * cos(el) * cos(az);
        y = beat * cos(el) * sin(az);
        z = beat * sin(el);
        2.pow(z).round(time)};

    m1=1.neg; m2=1.neg; m3=1.neg;

    dx=dx++bx;
    dy=dy++by;
    dz=dz++bz;

    bx=[]; by=[]; bz=[];
};

n=0;
rhythm.do{ durx=durx++dx.[n]; n=n+1;}; n=0;
rhythm.do{ dury=dury++dy.[n]; n=n+1;}; n=0;
rhythm.do{ durz=durz++dz.[n]; n=n+1;}; n=1;
(rhythm-1).do{ durx1=durx1++dx.[n]; n=n+1;}; n=1;
(rhythm-1).do{ dury1=dury1++dy.[n]; n=n+1;}; n=1;
(rhythm-1).do{ durz1=durz1++dz.[n]; n=n+1;}; n=0;
durx2=[dx.[4]]++durx1.reverse;
dury2=[dy.[4]]++dury1.reverse;
durz2=[dz.[4]]++durz1.reverse;
~dur=~dur++durx++dury++durz++durx2++dury2++durz2;
}.value);

~gain=1;~drive=0;~c=0;~attack=0.01;~decay=1;~s_size=1;~lowend=20;~room=0;
~incr1=0;~incr2=0;~sc=1;~gold=((1+5.sqrt)/2);~silver=(1+2.sqrt);
~incr=0;~ssc=26;~mix=0;~rect=16;
//~seq= Pseq([~dur.[0],Rest(~dur.[13.rand]),~dur.[1],Rest(~dur.[13.rand]),~dur.[2],Rest(~dur.[13.rand]),~dur.[3]] ,inf);
TempoClock.default.tempo_(0.01);

~pattern = Pdef(\1,
Pbind(\instrument, \synth,
\dur, Pseq(~dur ,inf),\s_size,Pfunc { ~s_size }, \lowend,Pfunc { ~lowend }, \room,Pfunc { ~room },
\gain,Pfunc { ~gain }, \sc, Pfunc { ~sc },\drive, Pfunc { ~drive },
\au,Pseq([0,5,1,6,2,7,3,8,4,9],inf),
\c, Pfunc { ~c },\mix, Pfunc{~mix},\rect,Pfunc{~rect},
\az, Pseries(0, Pfunc{~incr1}, inf).collect(_.wrap(pi.neg, pi)),
\el, Pseries(0, Pfunc{~incr2}, inf).collect(_.wrap(0.5pi.neg, 0.5pi)),
\attack,  Pfunc { ~attack }, \dicay, Pfunc { ~decay }, \ssc, Pfunc{~ssc};
));
~pattern.play;

///////////////////////////////////////////////////////////////////////////////////////////////////////////////////////gui
(
{
var size,sk,compass,n,scl,r,ssk=20,scope1,scope2,scope3,scope4,meter;
size=700; sk=(size/30); n=(2pi/9).neg; scl=(size/4); r=2;
compass=10.collect{n=n+(2pi/10); (exp(Complex(0,1)*n)*scl)};

w = Window("synthf", Rect(50, 50, size*2, size)).front;
~vw = UserView(w, Rect(0,0,size,size)).drawFunc_({ ~img_print.drawInRect(~vw.bounds)});
~vw1 = UserView(w,Rect(size,0,size,size)).background_(Color.black);
~logView = ListView( ~vw1, Rect(0, 0, 40, 750))
.background_(Color.black).stringColor_(Color.white)
.font_(Font("Arial", 20))
.items_([]);
~logItems = List.new;
~log = { |msg| {~logItems.add(msg); if(~logItems.size > 200) { ~logItems.removeAt(0);  };
 ~logView.items_(~logItems.asArray); ~logView.value_(~logItems.size - 1); }.defer;};

scope1 = FreqScopeView(~vw1, Rect(sk+100+50,sk+ssk+30,  sk+350, sk+100));
scope1.active_(true);scope1.dbRange_(120);scope1.inBus_(0);scope1.freqMode_(0);
scope2 = FreqScopeView(~vw1, Rect(sk+100+50, sk+ssk+180,  sk+350, sk+100));
scope2.active_(true);scope2.dbRange_(120);scope2.inBus_(1);scope2.freqMode_(0);
scope3 = FreqScopeView(~vw1, Rect(sk+100+50, sk+ssk+330, sk+350, sk+100));
scope3.active_(true);scope3.dbRange_(120);scope3.inBus_(2);scope3.freqMode_(0);
(
~sl1=Knob.new(~vw, Rect.aboutPoint((compass.[0].real+(size/r)) @ (compass.[0].imag+(size/r)), sk, sk)).
background_(Color.black).action_({
arg obj;
var value;
value=obj.value.linexp(0,1,1,16256/3).round(1).asInteger.postln;
~sc=value;
~log.(value.asString);
});
);
(
~sl2=Knob.new(~vw, Rect.aboutPoint((compass.[1].real+(size/r)) @ (compass.[1].imag+(size/r)), sk, sk)).
background_(Color.black).action_({
arg obj;
var value;
value=obj.value.linlin(0,1,(16256*4).neg,(16256*3)).round(1).asInteger.postln;
~drive=value;
~log.(value.asString);
});
);
(
~sl4=Knob.new(~vw, Rect.aboutPoint((compass.[2].real+(size/r)) @ (compass.[2].imag+(size/r)), sk, sk)).
background_(Color.black).action_({
arg obj;
var value;
value=obj.value.linexp(0,1,0.01,4).postln;
~attack=value;
~log.(value.asString);
});
);
(
~sl3=Knob.new(~vw, Rect.aboutPoint((compass.[3].real+(size/r)) @ (compass.[3].imag+(size/r)), sk, sk)).
background_(Color.black).action_({
arg obj;
var value;
value=obj.value.linexp(0,1,1,~note).round(1).asInteger.postln;
~ssc=value;
~log.(value.asString);
});
);
(
~sl5=Knob.new(~vw, Rect.aboutPoint((compass.[4].real+(size/r)) @ (compass.[4].imag+(size/r)), sk, sk)).
background_(Color.black).action_({
arg obj;
var value;
value=obj.value.linlin(0,1,0,16256*3).round(1).asInteger.postln;
~c=value;
~log.(value.asString);
});
);
(
~sl6=Knob.new(~vw, Rect.aboutPoint((compass.[5].real+(size/r)) @ (compass.[5].imag+(size/r)), sk, sk)).
background_(Color.black).action_({
arg obj;
var value;
value=obj.value.linexp(0,1,1,8).postln;
~decay=value;
~log.(value.asString);
});
);
(
~sl7=Knob.new(~vw, Rect.aboutPoint((compass.[6].real+(size/r))@ (compass.[6].imag+(size/r)), sk, sk)).
background_(Color.black).action_({
arg obj;
var value;
value=obj.value.linexp(0,1,1/16,8).round(1/64).postln;
TempoClock.default.tempo_(value);
~log.(value.asString);
});
);
(
~sl8=Knob.new(~vw, Rect.aboutPoint((compass.[7].real+(size/r))@ (compass.[7].imag+(size/r)), sk, sk)).
background_(Color.black).action_({
arg obj;
var value;
value=obj.value.linlin(0,1,0.degrad,2pi-(2pi/~silver)).round((2pi/992).degrad).postln;
~incr1=value;
~log.(value.asString);
});
);
(
~sl9=Knob.new(~vw, Rect.aboutPoint((compass.[8].real+(size/r))@ (compass.[8].imag+(size/r)), sk, sk)).
background_(Color.black).action_({
arg obj;
var value;
value=obj.value.linlin(0,1,0.degrad,pi-(pi/~gold)).round((pi/992).degrad).postln;
~incr2=value;
~log.(value.asString);
});
);
(
~sl10=Knob.new(~vw, Rect.aboutPoint((compass.[9].real+(size/r))@ (compass.[9].imag+(size/r)), sk, sk)).
background_(Color.black).action_({
arg obj;
var value;
value=obj.value.linexp(0,1,0.01,1).postln;
~mix=value;
~log.(value.asString);
});
);
(
~sl01=Knob.new(~vw1, Rect.new(sk+sk+50+50+sk,sk+sk, sk+ssk, sk+ssk)).
background_(Color.black).action_({
arg obj;
var value;
value=obj.value.linexp(0,1,0.001,2pi).postln;
~gain=value;
~log.(value.asString);
});
);
(
~sl02=Knob.new(~vw1, Rect.new(sk+sk+150+50+sk,sk+sk, sk+ssk, sk+ssk)).
background_(Color.black).action_({
arg obj;
var value;
value=obj.value.linexp(0,1,0.05,3).postln;
~s_size=value;
~log.(value.asString);
});
);
(
~sl03=Knob.new(~vw1, Rect.new(sk+sk+250+50+sk,sk+sk, sk+ssk, sk+ssk)).
background_(Color.black).action_({
arg obj;
var value;
value=obj.value.linlin(0,1,10,100).postln;
~lowend=value;
~log.(value.asString);
});
);
(
~sl04=Knob.new(~vw1, Rect.new(sk+sk+350+50+sk,sk+sk, sk+ssk, sk+ssk)).
background_(Color.black).action_({
arg obj;
var value;
value=obj.value.linexp(0,1,0.01,1).postln;
~room=value;
~log.(value.asString);
});
);
(
~sl05=Knob.new(~vw1, Rect.new(sk+sk+450+50+sk,sk+sk, sk+ssk, sk+ssk)).
background_(Color.black).action_({
arg obj;
var value;
value=obj.value.linlin(0,1,1,16).postln;
~rect=value;
~log.(value.asString);
});
)
}.defer
)
)
}); Tdef(\drone).play;
}
)






/